X:486
T:Bonnie Dundee
M:6/8
L:1/8
K:G
Bc | ded dBd | gfe d2 c | BdG BdB | ABA ABc | 
ded dBd | gfe d2 c | BdG AdF | GAG G :| 
z2 |: GGG GcB | ADD D3 | AAA ABc | cBA B2G | 
BAB cBc | dcd edc | BdG AdF | GAG G3 :|| 

